fs/document_page_bottom_center_20_filled.svg

<svg viewBox="0 0 20 20" fill="none" xmlns="http://www.w3.org/2000/svg" height="1em" width="1em">
  <path d="M10.7533 13.5024L10.5336 15.0024H9.2943L9.514 13.5024H10.7533ZM5.5 2C4.67157 2 4 2.67157 4 3.5V16.5C4 17.3284 4.67157 18 5.5 18H14.5C15.3284 18 16 17.3284 16 16.5L16 3.5C16 2.67157 15.3284 2 14.5 2H5.5ZM8.07246 16.4442L8.13717 16.0024H7.5C7.22386 16.0024 7 15.7785 7 15.5024C7 15.2263 7.22386 15.0024 7.5 15.0024H8.28363L8.50333 13.5024H8C7.72386 13.5024 7.5 13.2785 7.5 13.0024C7.5 12.7263 7.72386 12.5024 8 12.5024H8.64979L8.80721 11.4276C8.84723 11.1544 9.10117 10.9653 9.37439 11.0053C9.64762 11.0454 9.83667 11.2993 9.79666 11.5725L9.66046 12.5024H10.8998L11.0572 11.4276C11.0972 11.1544 11.3512 10.9653 11.6244 11.0053C11.8976 11.0454 12.0867 11.2993 12.0467 11.5725L11.9105 12.5024H12.5C12.7761 12.5024 13 12.7263 13 13.0024C13 13.2785 12.7761 13.5024 12.5 13.5024H11.764L11.5443 15.0024H12C12.2761 15.0024 12.5 15.2263 12.5 15.5024C12.5 15.7785 12.2761 16.0024 12 16.0024H11.3978L11.3119 16.5891C11.2719 16.8623 11.0179 17.0514 10.7447 17.0114C10.4715 16.9714 10.2824 16.7174 10.3225 16.4442L10.3872 16.0024H9.14784L9.0619 16.5891C9.02188 16.8623 8.76795 17.0514 8.49472 17.0114C8.22149 16.9714 8.03244 16.7174 8.07246 16.4442Z" fill="#212121"/>
</svg>

<svg viewBox="0 0 20 20" fill="none" xmlns="http://www.w3.org/2000/svg" height="1em" width="1em">
  <path d="m10.753 13.502-.22 1.5H9.295l.22-1.5h1.24ZM5.5 2A1.5 1.5 0 0 0 4 3.5v13A1.5 1.5 0 0 0 5.5 18h9a1.5 1.5 0 0 0 1.5-1.5v-13A1.5 1.5 0 0 0 14.5 2h-9Zm2.572 14.444.065-.442H7.5a.5.5 0 0 1 0-1h.784l.22-1.5H8a.5.5 0 0 1 0-1h.65l.157-1.074a.5.5 0 0 1 .99.144l-.137.93h1.24l.157-1.074a.5.5 0 0 1 .99.144l-.136.93h.589a.5.5 0 0 1 0 1h-.736l-.22 1.5H12a.5.5 0 0 1 0 1h-.602l-.086.587a.5.5 0 0 1-.99-.145l.065-.442h-1.24l-.085.587a.5.5 0 0 1-.99-.145Z" fill="#212121"/>
</svg>
